doc/_static/institution_logos/Washington.svg

<?xml version="1.0" encoding="UTF-8" standalone="no"?>
<svg
   xmlns:dc="http://purl.org/dc/elements/1.1/"
   xmlns:cc="http://creativecommons.org/ns#"
   xmlns:rdf="http://www.w3.org/1999/02/22-rdf-syntax-ns#"
   xmlns:svg="http://www.w3.org/2000/svg"
   xmlns="http://www.w3.org/2000/svg"
   id="svg5"
   version="1.2"
   viewBox="0 0 108 72.62"
   height="72.62pt"
   width="108pt">
  <metadata
     id="metadata11">
    <rdf:RDF>
      <cc:Work
         rdf:about="">
        <dc:format>image/svg+xml</dc:format>
        <dc:type
           rdf:resource="http://purl.org/dc/dcmitype/StillImage" />
        <dc:title></dc:title>
      </cc:Work>
    </rdf:RDF>
  </metadata>
  <defs
     id="defs9" />
  <g
     id="surface545">
    <path
       id="path2"
       d="M 79.257812 0 C 79.257812 0.859375 79.257812 12.238281 79.257812 13.097656 C 80.113281 13.097656 88.464844 13.097656 88.464844 13.097656 L 78.1875 51.347656 C 78.1875 51.347656 65.609375 0.714844 65.429688 0 C 64.742188 0 52.804688 0 52.128906 0 C 51.941406 0.695312 38.332031 51.351562 38.332031 51.351562 L 28.867188 13.097656 C 28.867188 13.097656 37.59375 13.097656 38.453125 13.097656 C 38.453125 12.238281 38.453125 0.859375 38.453125 0 C 37.53125 0 0.917969 0 0 0 C 0 0.859375 0 12.238281 0 13.097656 C 0.851562 13.097656 8.519531 13.097656 8.519531 13.097656 C 8.519531 13.097656 23.222656 71.90625 23.402344 72.621094 C 24.109375 72.621094 43.34375 72.621094 44.039062 72.621094 C 44.222656 71.921875 53.890625 35.164062 53.890625 35.164062 C 53.890625 35.164062 63.078125 71.914062 63.257812 72.621094 C 63.964844 72.621094 83.199219 72.621094 83.894531 72.621094 C 84.082031 71.917969 99.550781 13.097656 99.550781 13.097656 C 99.550781 13.097656 107.148438 13.097656 108 13.097656 C 108 12.238281 108 0.859375 108 0 C 107.09375 0 80.167969 0 79.257812 0 "
       style=" stroke:none;fill-rule:nonzero;fill:rgb(18.974304%,16.604614%,51.515198%);fill-opacity:1;" />
  </g>
</svg>

<svg xmlns="http://www.w3.org/2000/svg" version="1.2" viewBox="0 0 108 72.62" height="96.827" width="144">
  <path d="M79.258 0v13.098h9.207l-10.278 38.25S65.61.715 65.43 0H52.129c-.188.695-13.797 51.352-13.797 51.352l-9.465-38.254h9.586V0H0v13.098h8.52L23.402 72.62H44.04l9.852-37.457s9.187 36.75 9.367 37.457h20.637c.187-.703 15.656-59.523 15.656-59.523H108V0H79.258" style="stroke:none;fill-rule:nonzero;fill:#302a83;fill-opacity:1"/>
</svg>
